src/assets/cloud.svg

<svg xmlns="http://www.w3.org/2000/svg" width="30" height="30" viewBox="0 0 30 30" fill="none">
  <g clip-path="url(#clip0_80_544)">
    <path d="M3.88333 2.66661L4.20833 2.99161C4.53333 3.30827 4.53333 3.84161 4.20833 4.15827L4.2 4.16661C3.875 4.49161 3.35833 4.49161 3.03333 4.16661L2.70833 3.84161C2.38333 3.52494 2.38333 2.99994 2.70833 2.67494L2.71667 2.66661C3.03333 2.34994 3.55833 2.34161 3.88333 2.66661Z" fill="white" fill-opacity="0.8"/>
    <path d="M0.825 8.29161H1.675C2.13333 8.29161 2.5 8.65827 2.5 9.12494V9.13327C2.5 9.59161 2.13333 9.95827 1.66667 9.94994H0.825C0.366667 9.94994 0 9.58327 0 9.12494V9.11661C0 8.65827 0.366667 8.29161 0.825 8.29161Z" fill="white" fill-opacity="0.8"/>
    <path d="M9.16667 -6.10352e-05H9.175C9.63333 -6.10352e-05 10 0.366606 10 0.824939V1.63327C10 2.09161 9.63333 2.45827 9.16667 2.44994H9.15833C8.7 2.44994 8.33333 2.08327 8.33333 1.62494V0.824939C8.33333 0.366606 8.7 -6.10352e-05 9.16667 -6.10352e-05Z" fill="white" fill-opacity="0.8"/>
    <path d="M14.45 2.66661C14.775 2.34994 15.3 2.34994 15.625 2.67494C15.95 2.99994 15.95 3.51661 15.625 3.84161L15.3 4.16661C14.9833 4.49161 14.4583 4.49161 14.1333 4.16661L14.125 4.15827C13.8 3.84161 13.8 3.31661 14.125 2.99161L14.45 2.66661Z" fill="white" fill-opacity="0.8"/>
    <path d="M4.16667 9.12494C4.16667 6.36661 6.40833 4.12494 9.16667 4.12494C11.06 4.12494 12.7099 5.18108 13.5585 6.73552C12.5909 7.59585 11.8679 8.72529 11.507 10.0064C11.4219 10.0021 11.3362 9.99994 11.25 9.99994C9.06011 9.99994 7.19904 11.4078 6.52247 13.3677C5.10854 12.4838 4.16667 10.9129 4.16667 9.12494Z" fill="white" fill-opacity="0.8"/>
    <path d="M3.88333 15.5749C3.55833 15.8999 3.03333 15.8999 2.70833 15.5749C2.38333 15.2499 2.38333 14.7333 2.7 14.3999L3.025 14.0749C3.35 13.7499 3.875 13.7499 4.2 14.0749L4.20833 14.0833C4.525 14.3999 4.53333 14.9249 4.20833 15.2499L3.88333 15.5749Z" fill="white" fill-opacity="0.8"/>
    <path d="M25 23.7499H8.75C6.67893 23.7499 5 22.071 5 19.9999C5 18.3655 6.04561 16.9753 7.50441 16.4618C7.50148 16.3915 7.5 16.3209 7.5 16.2499C7.5 13.4885 9.73858 11.2499 12.5 11.2499C12.5862 11.2499 12.6719 11.2521 12.757 11.2564C13.571 8.36748 16.2257 6.24994 19.375 6.24994C23.172 6.24994 26.25 9.32798 26.25 13.1249C26.25 13.3858 26.2355 13.6433 26.2072 13.8966C28.3854 14.4367 30 16.4047 30 18.7499C30 21.5114 27.7614 23.7499 25 23.7499Z" fill="white" fill-opacity="0.8"/>
    <path d="M12.4818 28.7864L14.1432 25.4635C14.2853 25.1794 14.5756 24.9999 14.8932 24.9999C15.5166 24.9999 15.922 25.6559 15.6432 26.2135L13.9818 29.5364C13.8397 29.8205 13.5494 29.9999 13.2318 29.9999C12.6084 29.9999 12.203 29.3439 12.4818 28.7864Z" fill="white" fill-opacity="0.8"/>
    <path d="M16.2318 28.7864L17.8932 25.4635C18.0353 25.1794 18.3256 24.9999 18.6432 24.9999C19.2666 24.9999 19.672 25.6559 19.3932 26.2135L17.7318 29.5364C17.5897 29.8205 17.2994 29.9999 16.9818 29.9999C16.3584 29.9999 15.953 29.3439 16.2318 28.7864Z" fill="white" fill-opacity="0.8"/>
  </g>
  <defs>
    <clipPath id="clip0_80_544">
      <rect width="30" height="30" fill="white"/>
    </clipPath>
  </defs>
</svg>

<svg xmlns="http://www.w3.org/2000/svg" width="30" height="30" fill="none"><g fill="#fff" fill-opacity=".8" clip-path="url(#a)"><path d="m3.883 2.667.325.325a.82.82 0 0 1 0 1.166l-.008.009a.82.82 0 0 1-1.167 0l-.325-.325a.82.82 0 0 1 0-1.167l.009-.008a.827.827 0 0 1 1.166 0M.825 8.292h.85c.458 0 .825.366.825.833v.008a.81.81 0 0 1-.833.817H.825A.82.82 0 0 1 0 9.125v-.008c0-.459.367-.825.825-.825M9.167 0h.008c.458 0 .825.367.825.825v.808a.81.81 0 0 1-.833.817h-.009a.82.82 0 0 1-.825-.825v-.8C8.333.367 8.7 0 9.167 0M14.45 2.667a.84.84 0 0 1 1.175.008.82.82 0 0 1 0 1.167l-.325.325a.82.82 0 0 1-1.167 0l-.008-.009a.82.82 0 0 1 0-1.166zM4.167 9.125c0-2.758 2.241-5 5-5a5 5 0 0 1 4.392 2.61 6.88 6.88 0 0 0-2.052 3.271 5.002 5.002 0 0 0-4.985 3.361 5 5 0 0 1-2.355-4.242M3.883 15.575a.83.83 0 0 1-1.175 0A.84.84 0 0 1 2.7 14.4l.325-.325a.83.83 0 0 1 1.175 0l.008.008a.827.827 0 0 1 0 1.167z"/><path d="M25 23.75H8.75a3.75 3.75 0 0 1-1.246-7.288 5 5 0 0 1 5.253-5.205 6.875 6.875 0 0 1 13.45 2.64A5 5 0 0 1 25 23.75M12.482 28.786l1.661-3.323a.839.839 0 1 1 1.5.75l-1.661 3.323a.839.839 0 0 1-1.5-.75M16.232 28.786l1.661-3.323a.839.839 0 1 1 1.5.75l-1.661 3.323a.839.839 0 0 1-1.5-.75"/></g><defs><clipPath id="a"><path fill="#fff" d="M0 0h30v30H0z"/></clipPath></defs></svg>
